X: 1
T: Hvalssi
T: Wedding waltz
O: trad Finland
Z: John Chambers <jc@trillian.mit.edu>
B: Pelimannisvelmi v.1, Pelimannikilta ry, (Fazer 1971)
M: 3/4
L: 1/8
K: Dm
|: A,2 \
| "Dm"A,4D2 | F4A2 | d3^cde | d3^cde \
| "Gm"d4c2 | B3AG2 | "Dm"A6- | A2z2A,2 |
| "Dm"A,2D2E2 | F2E2D2 | A2G2F2 | "A7"e3d^ce \
| "Dm"a6 | "Gm"g2f z2d | "A7"e6- | e2z2A,2 |
| "Dm"A,4D2 | F4A2 | d3^cde | d3^cde \
| "Gm"d4c2 | B3AG2 | "Dm"A6- | A2z2a2 |
| "Gm"g6 | f4e2 | "A7"e3d^ce | "Dm"a6 \
| "Gm"g2f2d2 | "A7"A2=B2^c2 | "Dm"d6- | d2z2 :|
|: F2 \
| "F"F4A2 | A4c2 | c4f2 | "C7"e4c2 \
| e6 | d2c z2B | G6- | G3FED |
| "C7"C4E2 | E4G2 | "G7"G4F2 | E4D2 \
| "C"C2=B,2C2 | "Bb"^C2D2B,2 | "F"A,6- | A,2z2F2 |
| "F"F4A2 | A4c2 | c4f2 | "C7"e4c2 \
| e6 | d2c z2B | G6- | G3fed |
| "F"c4e2 | "G7"e4d2 | "C"c2=B2c2 | "F"a4f2 \
| "C7"c2=B2c2 | d2c z2a | "F"f6- | f2z2 :| [K:Am]
|: "E7"E2 \
| "Am"A6 | B4c2 | "Dm"d4-de | f6 \
| "Am"e6 | "E7"d2c2B2 | "Am"A6- | A2z2E2 |
| "Am"A6 | B4c2 | "Dm"d2f2a2 | c'4b2 \
| "G7"b2a2g2 | "Dm"f4d2 | "E7"e6- | e2z2E2 |
| "Am"A6 | B4c2 | "Dm"d4-de | f6 \
| "Am"e6 | "E7"d2c2B2 | "Am"A6- | A2z2a2 |
| "Am"a3bc'2 | "B7"b4^d2 | "Am"e4a2 | "G7"g4f2 \
| "E7"e2d2c2 | B2c2B2 | "Am"A6- | A2z2 :|
